icons/lock-fill.svg

<svg xmlns="http://www.w3.org/2000/svg" width="450" height="450" viewBox="0 0 450 450">
  <path d="M425,175.01H375v-25a150,150,0,0,0-300,0v25H25a25.00264,25.00264,0,0,0-25,25v150a99.99807,99.99807,0,0,0,100,100H350a99.99807,99.99807,0,0,0,100-100v-150A25.00264,25.00264,0,0,0,425,175.01Zm-200,175a37.5,37.5,0,1,1,37.5-37.5A37.49451,37.49451,0,0,1,225,350.01Zm-100-200a100,100,0,1,1,200,0v25H125Z"/>
  <rect y="0.01489" width="450" height="450" fill="none"/>
</svg>

<svg id="Layer_1" data-name="Layer 1" xmlns="http://www.w3.org/2000/svg" viewBox="0 0 450 450"><path d="M425,175H375V150a150,150,0,0,0-300,0v25H25A25,25,0,0,0,0,200V350A100,100,0,0,0,100,450H350A100,100,0,0,0,450,350V200A25,25,0,0,0,425,175ZM225,350a37.5,37.5,0,1,1,37.5-37.5A37.49,37.49,0,0,1,225,350ZM125,150a100,100,0,0,1,200,0v25H125Z"/></svg>
